!!!!SEGMENT: Lhe2001-Te_matrem.krn
!!!id: Lhe2001
!!!AGN: Motet
!!!SCT: Lowinsky (1968)
!!!voices: 4
!!!COM: Jean Lhéritier
!!!OTL: Te matrem
**kern	**kern	**kern	**kern
*part4	*part3	*part2	*part1
*staff4	*staff3	*staff2	*staff1
*I"Bassus	*I"Tenor	*I"Altus	*I"Superius
*I'B	*I'T	*I'A	*I'S
*clefF4	*clefGv2	*clefGv2	*clefG2
*k[b-]	*k[b-]	*k[b-]	*k[b-]
*F:	*F:	*F:	*F:
*M2/1	*M2/1	*M2/1	*M2/1
*met(C|)	*met(C|)	*met(C|)	*met(C|)
!!Section: Prima pars: Te matrem
!!!OMD: Prima pars: Te matrem
=1	=1	=1	=1
0r	0r	0d	0r
=2	=2	=2	=2
0r	0r	1B-y	1r
.	.	1c	[1a
=3	=3	=3	=3
0r	0r	0d	1a]
.	.	.	1f
=4	=4	=4	=4
0r	0r	1G	1g
.	.	1d	[1a
=5	=5	=5	=5
0r	0r	1c	1a]
.	.	1B-y	1d
=6	=6	=6	=6
0r	0r	2r	1a
.	.	2c	.
.	.	2c	1g
.	.	2c	.
=7	=7	=7	=7
0r	0r	2d	2f
.	.	2B-y	2f
.	.	1e-i	2g
.	.	.	2g
=8	=8	=8	=8
0r	0r	1d	2a
.	.	.	2f
.	.	2G	1b-y
.	.	[2d	.
=9	=9	=9	=9
0r	0r	2d]	1a
.	.	2c	.
.	.	2B-y	2d
.	.	2c	[2a
=10	=10	=10	=10
0D	0r	2d	4a]
.	.	.	4g
.	.	2B-y	1g
.	.	1A	.
.	.	.	2f#i
=11	=11	=11	=11
1BB-y	1r	1G	1g
1C	[1A	1r	1r
=12	=12	=12	=12
0D	1A]	0r	0r
.	1F	.	.
=13	=13	=13	=13
1GG	1G	0r	0r
1D	[1A	.	.
=14	=14	=14	=14
1C	1A]	0r	0r
1BB-y	1D	.	.
=15	=15	=15	=15
2r	1A	0r	0r
2C	.	.	.
2C	1G	.	.
2C	.	.	.
=16	=16	=16	=16
2D	2F	0r	0r
2BB-y	2F	.	.
1E-i	2G	.	.
.	2G	.	.
=17	=17	=17	=17
1D	2A	0r	0r
.	2F	.	.
2GG	2B-y	.	.
2C	2A	.	.
=18	=18	=18	=18
2BB-y	2D	0r	1r
2.C	2.A	.	.
.	.	.	1a
4BB-y	4G	.	.
4AA	[2G	.	.
4GG	.	.	.
=19	=19	=19	=19
1AA	2G]	1r	2a
.	2F#i	.	2a
2GG	1G	1d	1b-y
2G	.	.	.
=20	=20	=20	=20
2G	2r	2d	1a
2F	2A	2d	.
2G	2B-y	2d	2g
[2F	[2c	[2f	[2a
=21	=21	=21	=21
4F]	4c]	4f]	4a]
4G	4B-y	4e	4g
2E	2G	2c	1g
1D	1A	1d	.
.	.	.	2f#i
=22	=22	=22	=22
[0GG	[0G	0d	1g
.	.	.	2r
.	.	.	[2g
=23	=23	=23	=23
1GG]	1G]	2r	2g]
.	.	1d	2g
1r	1r	.	2d
.	.	2d	2f
=24	=24	=24	=24
0r	0r	2A	2e
.	.	2c	2e
.	.	2B-y	2d
.	.	2B-y	2d
=25	=25	=25	=25
0r	0r	2A	2e
.	.	2A	2f
.	.	2B-y	1g
.	.	2c	.
=26	=26	=26	=26
0r	0r	1d	2f
.	.	.	2f
.	.	1c	2g
.	.	.	2a
=27	=27	=27	=27
0r	0r	2r	1d
.	.	2B-y	.
.	.	2c	1a
.	.	2d	.
=28	=28	=28	=28
0r	0r	1G	1b-y
.	.	1d	1a
=29	=29	=29	=29
0r	0r	1e	1g
.	.	1d	2r
.	.	.	2f
=30	=30	=30	=30
0r	0r	1c	2g
.	.	.	2a
.	.	2r	1d
.	.	2B-y	.
=31	=31	=31	=31
0r	0r	2c	1a
.	.	2d	.
.	.	2G	2b-y
.	.	[2d	[2a
=32	=32	=32	=32
1r	0r	4d]	4a]
.	.	4c	4g
.	.	2B-y	1g
1D	.	2A	.
.	.	[2d	2f#i
=33	=33	=33	=33
1E	1r	2d]	1g
.	.	2c#i	.
1D	1A	[1d	1r
=34	=34	=34	=34
2GG	1B-y	1d]	0r
1D	.	.	.
.	1A	1r	.
2C	.	.	.
=35	=35	=35	=35
1BB-y	1D	0r	0r
2AA	1A	.	.
2D	.	.	.
=36	=36	=36	=36
2G	1B-y	0r	0r
2G	.	.	.
2D	1A	.	.
2F	.	.	.
=37	=37	=37	=37
2E	2G	0r	0r
2.C	2G	.	.
.	2c	.	.
4D	.	.	.
4E	2c	.	.
4F	.	.	.
=38	=38	=38	=38
2G	2B-y	0r	0r
2.D	1A	.	.
4C	.	.	.
2BB-y	[2G	.	.
=39	=39	=39	=39
1AA	2G]	0r	1a
.	2F#i	.	.
2GG	1G	.	1b-y
[2G	.	.	.
=40	=40	=40	=40
2G]	0r	1d	1a
2F	.	.	.
2G	.	1e	2g
2C	.	.	[2cc
=41	=41	=41	=41
2G	0r	1d	2cc]
2D	.	.	2b-y
1F	.	2c	1a
.	.	[2f	.
=42	=42	=42	=42
1C	0r	2f]	1g
.	.	2e	.
2G	.	1d	2r
2D	.	.	2f
=43	=43	=43	=43
2E	0r	1c	2g
2F	.	.	2a
1G	.	2r	1b-y
.	.	2B-y	.
=44	=44	=44	=44
2.F	0r	2c	1a
.	.	2d	.
4E	.	.	.
4C	.	2e-i	2g
4D	.	.	.
4E	.	2e-i	2cc
4F	.	.	.
=45	=45	=45	=45
2G	2r	1d	2b-y
2D	2F	.	2.a
1E	1G	2B-y	.
.	.	.	4g
.	.	2c	[2g
=46	=46	=46	=46
1D	1A	1d	2g]
.	.	.	2f#i
2r	2G	[1d	1g
[2G	[2B-y	.	.
=47	=47	=47	=47
2G]	2B-]	1d]	0r
2F	2A	.	.
2G	2B-y	1r	.
2D	2A	.	.
=48	=48	=48	=48
1G	1B-y	1.d	1r
[1D	[1A	.	[1a
.	.	2d	.
=49	=49	=49	=49
1D]	0A]	2f	2a]
.	.	2f	2a
1r	.	2.e	2cc
.	.	.	2cc
.	.	4f	.
=50	=50	=50	=50
0r	0r	1g	2.b-y
.	.	.	4cc
.	.	2r	1dd
.	.	[2g	.
=51	=51	=51	=51
0r	0r	2g]	2r
.	.	2g	1dd
.	.	1g	.
.	.	.	2dd
=52	=52	=52	=52
0r	0r	2d	1dd
.	.	1f	.
.	.	.	2a
.	.	4e	[2cc
.	.	4d	.
=53	=53	=53	=53
0r	1r	4e	2cc]
.	.	4f	.
.	.	1g	2b-y
.	1d	.	1a
.	.	2f#i	.
=54	=54	=54	=54
1r	1e	0g	0g
1G	1d	.	.
=55	=55	=55	=55
1A	1c	0r	0r
1G	2r	.	.
.	2B-y	.	.
=56	=56	=56	=56
1F	2c	0r	0r
.	2d	.	.
2r	1G	.	.
2E	.	.	.
=57	=57	=57	=57
2F	2A	1d	0r
2G	2B-y	.	.
2C	2G	1e	.
[2G	[2B-y	.	.
=58	=58	=58	=58
2G]	2B-]	1d	0r
2F	1A	.	.
1E	.	1c	.
.	2G	.	.
=59	=59	=59	=59
2D	1B-y	2r	0r
2G	.	2B-y	.
2F	2A	2c	.
2D	[2B-y	2d	.
=60	=60	=60	=60
2E	4B-]	2.G	1r
.	4G	.	.
2C	2c	.	.
.	.	4A	.
1G	2d	4B-y	[1g
.	.	4c	.
.	[2B-y	[2d	.
=61	=61	=61	=61
1E	2B-]	2d]	2g]
.	4A	2c	2g
.	4G	.	.
2D	1B-y	2d	1f
[2D	.	[2d	.
=62	=62	=62	=62
2D]	1A	2d]	1f
2D	.	2d	.
1E	2r	1B-y	[1g
.	[2G	.	.
=63	=63	=63	=63
1E	2G]	1c	1g]
.	2G	.	.
2D	1B-y	2d	2r
[2G	.	2d	2g
=64	=64	=64	=64
2G]	1A	2e	1.cc
2F	.	2f	.
2G	1G	2d	.
2G	.	[2g	2b-y
=65	=65	=65	=65
1D	1.d	2g]	1a
.	.	2f#i	.
[1G	.	2g	[1g
.	2c	4G	.
.	.	4A	.
=66	=66	=66	=66
2G]	2B-y	4B-y	0g]
.	.	4c	.
2F	1A	1d	.
1E	.	.	.
.	2G	2c#i	.
=67	=67	=67	=67
0D;	0A;	0d;	0f;
=68	=68	=68	=68
0GG	0G	0d	0b-y
=69	=69	=69	=69
0D;	0F;	0d;	0a;
=70	=70	=70	=70
0G	0B-y	0d	0g
=71	=71	=71	=71
0D;	0A;	0d;	0f;
=	=	=	=
*M3/1	*M3/1	*M3/1	*M3/1
*met(3)	*met(3)	*met(3)	*met(3)
0G	0d	0g	0b-y
1B-y	1d	1f	1b-y
=72	=72	=72	=72
1F	1c	1f	0a
0G	0B-y	1d	.
.	.	1e	1g
=73	=73	=73	=73
0F	0c	1f	1a
.	.	1f	1a
1F	1c	1f	1a
=74	=74	=74	=74
1G	1B-y	1d	1g
1D	1d	1.f	1.a
1F	1c	.	.
.	.	2e	2g
=75	=75	=75	=75
1G	1B-y	1d	0g
0D	0A	0d	.
.	.	.	1f#i
=	=	=	=
*M2/1	*M2/1	*M2/1	*M2/1
*met(C|)	*met(C|)	*met(C|)	*met(C|)
2GG	1G	1B-y	0g
2GG	.	.	.
2C	2r	1r	.
2BB-y	2D	.	.
=76	=76	=76	=76
2C	2G	0r	0r
2D	2F	.	.
2E	2G	.	.
2F	2A	.	.
=77	=77	=77	=77
1G	2B-y	0r	0r
.	2c	.	.
2r	1d	.	.
2D	.	.	.
=78	=78	=78	=78
2G	2r	0r	0r
2F	2A	.	.
2G	2d	.	.
2A	2c	.	.
=79	=79	=79	=79
2F	2d	0r	0r
1G	2B-y	.	.
.	2A	.	.
2F	[2d	.	.
=80	=80	=80	=80
1E	2d]	0r	0r
.	2c	.	.
1D	2B-y	.	.
.	[2A	.	.
=81	=81	=81	=81
2C	4A]	0r	1r
.	4G	.	.
2BB-y	1G	.	.
1AA	.	.	2r
.	2F#i	.	[2cc
=82	=82	=82	=82
1GG	1G	2r	2cc]
.	.	1g	2b-y
1D	1r	.	2a
.	.	2f	2a
=83	=83	=83	=83
1r	2r	2e	0g
.	1c	2e	.
2r	.	[1d	.
[2G	2B-y	.	.
=84	=84	=84	=84
2G]	2A	1d]	2r
2F	2A	.	2a
2E	1G	2r	2b-y
2E	.	2c	[2g
=85	=85	=85	=85
2D	2r	1d	2g]
2D	2A	.	2f
2G	2B-y	1d	1g
2G	[2G	.	.
=86	=86	=86	=86
1D	2G]	1d	1a
.	2F	.	.
1E	1G	2B-y	2g
.	.	2c	[2g
=87	=87	=87	=87
1D	1A	1d	2g]
.	.	.	2f#i
[1GG	[1G	2r	1g
.	.	[2d	.
=88	=88	=88	=88
0GG]	0G]	2d]	2r
.	.	2d	1g
.	.	2d	.
.	.	2d	2g
=89	=89	=89	=89
0r	0r	1e	2g
.	.	.	2g
.	.	2d	1a
.	.	2f	.
=90	=90	=90	=90
0r	1r	2e	2g
.	.	1d	2f
.	[1A	.	1e
.	.	2c#i	.
=91	=91	=91	=91
1.D	2A]	0d	0d
.	2A	.	.
.	1B-y	.	.
2D	.	.	.
=92	=92	=92	=92
1E	2G	0r	0r
.	1c	.	.
2C	.	.	.
[2G	2B-y	.	.
=93	=93	=93	=93
2G]	1A	0r	0r
2F	.	.	.
1E	2G	.	.
.	2G	.	.
=94	=94	=94	=94
2D	2A	0r	0r
2D	2B-y	.	.
2E	2.c	.	.
2F	.	.	.
.	4A	.	.
=95	=95	=95	=95
2.G	1B-y	0r	0r
4E	.	.	.
1F	2A	.	.
.	[2c	.	.
=96	=96	=96	=96
2E	2c]	0r	0r
1G	2B-y	.	.
.	2e-i	.	.
2F	[2d	.	.
=97	=97	=97	=97
1G	4d]	0r	0r
.	4c	.	.
.	4B-y	.	.
.	4A	.	.
2E	2G	.	.
2F	[2c	.	.
=98	=98	=98	=98
1D	2c]	0r	0r
.	2Bni	.	.
2C	2c	.	.
[2E	2G	.	.
=99	=99	=99	=99
4E]	1B-y	1r	0r
4D	.	.	.
1G	.	.	.
.	1A	2r	.
2F#i	.	2d	.
=100	=100	=100	=100
1G	1G	2d	2r
.	.	2d	2g
1r	1r	2e	2g
.	.	2e	2g
=101	=101	=101	=101
0r	0r	2f	2a
.	.	2d	2a
.	.	1g	2b-y
.	.	.	2g
=102	=102	=102	=102
0r	0r	2f	1cc
.	.	2.e	.
.	.	.	2b-y
.	.	4d	.
.	.	[2g	2g
=103	=103	=103	=103
1r	1d	2g]	1a
.	.	2f	.
1G	2d	2g	2r
.	2d	2g	2b-y
=104	=104	=104	=104
2G	2d	2g	2b-y
2G	2d	2g	2b-y
2C	1e	2g	2cc
2C	.	2g	2cc
=105	=105	=105	=105
2G	2d	2g	2b-y
2A	1c	2e	2.a
2F	.	2f	.
.	.	.	4g
2G	2B-y	2d	[2g
=106	=106	=106	=106
1D	1A	1d	2g]
.	.	.	2f#i
2r	2G	2e	[1g
[2G	2d	[2d	.
=107	=107	=107	=107
2G]	2e	4d]	0g_
.	.	4c	.
2G	2e	1c	.
2G	1d	.	.
2G	.	2Bni	.
=108	=108	=108	=108
2C	2r	1c	1g]
2C	1c	.	.
1F	.	1r	1r
.	2c	.	.
=109	=109	=109	=109
1E	2c	0r	0r
.	2c	.	.
1D	2F	.	.
.	2F	.	.
=110	=110	=110	=110
2r	1B-y	0r	0r
1G	.	.	.
.	1A	.	.
2F	.	.	.
=111	=111	=111	=111
1G	2G	1B-y	0r
.	2.d	.	.
2F	.	1c	.
.	4c	.	.
2E	[2c	.	.
=112	=112	=112	=112
1D	2c]	1d	2r
.	2Bni	.	1f
1C	1c	2r	.
.	.	[2g	2e
=113	=113	=113	=113
0r	0r	2g]	1d
.	.	2f	.
.	.	1e	2c
.	.	.	[2cc
=114	=114	=114	=114
0r	0r	2.d	2cc]
.	.	.	2b-y
.	.	4e	.
.	.	4f	1a
.	.	4g	.
.	.	[2f	.
=115	=115	=115	=115
0r	2r	2f]	0g
.	1c	2e	.
.	.	2d	.
.	2B-y	[2g	.
=116	=116	=116	=116
0r	1A	2g]	1cc
.	.	2f	.
.	2G	2g	2b-y
.	[2c	[2e	[2a
=117	=117	=117	=117
0r	4c]	4e]	4a]
.	4B-y	4d	4g
.	4A	1d	1g
.	4G	.	.
.	1A	.	.
.	.	2c	2f#i
=118	=118	=118	=118
2r	1G	[0d	1g
1G	.	.	.
.	1r	.	1r
2F	.	.	.
=119	=119	=119	=119
2G	2r	0d]	0r
2G	1B-y	.	.
1D	.	.	.
.	2A	.	.
=120	=120	=120	=120
2r	2B-y	0r	0r
2D	2B-y	.	.
2F	1A	.	.
2F	.	.	.
=121	=121	=121	=121
2E	2r	0r	0r
2E	2G	.	.
2D	2B-y	.	.
[2G	2B-y	.	.
=122	=122	=122	=122
2G]	2A	1r	0r
2F	2A	.	.
2E	2G	2r	.
4D	[2c	2e	.
4C	.	.	.
=123	=123	=123	=123
1D	2c]	2f	1r
.	2Bni	2f	.
1C	1c	2e	1g
.	.	2c	.
=124	=124	=124	=124
0r	0r	1d	2b-y
.	.	.	2b-y
.	.	2c	2a
.	.	[2f	2f
=125	=125	=125	=125
0r	0r	2f]	1g
.	.	2e	.
.	.	2d	2f
.	.	2c	[2cc
=126	=126	=126	=126
1r	0r	1d	2cc]
.	.	.	2b-y
2r	.	[1c	2a
2C	.	.	2g
=127	=127	=127	=127
1F	2r	2c]	1a
.	2A	2d	.
2E	1c	1e	2g
2C	.	.	2g
=128	=128	=128	=128
1G	2B-y	1.d	1g
.	2G	.	.
1D	1B-y	.	[1f
.	.	4c	.
.	.	4B-y	.
=129	=129	=129	=129
2r	1A	2c	1f]
2D	.	2d	.
1E	2r	2B-y	1g
.	2G	2c	.
=130	=130	=130	=130
2D	2A	1d	2f
2BB-y	2D	.	2.b-y
1E-i	1G	2B-y	.
.	.	.	4a
.	.	2c	[2g
=131	=131	=131	=131
1D	1A	1d	2g]
.	.	.	2f#i
2GG	1G	2r	[1g
[2G	.	2d	.
=132	=132	=132	=132
2G]	2r	1e	1g]
2E	2G	.	.
2F	2A	1d	1r
2G	2B-y	.	.
=133	=133	=133	=133
2C	2G	1c	0r
2F	1A	.	.
2.F	.	1c	.
.	4G	.	.
8EL	4F	.	.
8DJ	.	.	.
=134	=134	=134	=134
2E	2G	1c	0r
2F	2A	.	.
2BB-y	2.B-y	1d	.
[2B-y	.	.	.
.	8AL	.	.
.	8GJ	.	.
=135	=135	=135	=135
4B-]	2F	1d	0r
4A	.	.	.
2G	1B-y	.	.
2G	.	1d	.
4F	4A	.	.
4E	4G	.	.
=136	=136	=136	=136
2F	2A	1d	0r
2G	2B-y	.	.
2C	2c	1e	.
[2G	[2B-y	.	.
=137	=137	=137	=137
4G]	4B-]	1d	0r
4D	4A	.	.
2F	1A	.	.
1E	.	1c	.
.	[2G	.	.
=138	=138	=138	=138
1D	2G]	1d	1a
.	2F	.	.
2GG	2G	1d	2b-y
2D	2F	.	[2a
=139	=139	=139	=139
1E	1G	2B-y	4a]
.	.	.	4g
.	.	2c	1g
1D	1A	1d	.
.	.	.	2f#i
=	=	=	=
*M3/1	*M3/1	*M3/1	*M3/1
*met(3)	*met(3)	*met(3)	*met(3)
0GG	0G	0d	0g
1r	1r	1r	1r
=140	=140	=140	=140
1G	1d	1g	1b-y
1G	1d	1g	1b-y
1G	1B-y	1d	1b-y
=141	=141	=141	=141
1F	1c	1f	0a
1F	1.f	1c	.
[1B-y	.	[1d	1f
.	2e	.	.
=142	=142	=142	=142
1B-]	0d	1d]	1g
0A	.	0e	0a
.	1c#i	.	.
=143	=143	=143	=143
0D	0d	0f	0a
1r	1r	1r	1r
=144	=144	=144	=144
0BB-y	0d	0f	0b-y
1F	1c	1f	1a
=145	=145	=145	=145
1G	1B-y	1d	1g
1F	1.c	1A	1.a
[1E	.	1B-y	.
.	2B-y	.	2g
=146	=146	=146	=146
1E]	1G	1c	0g
0D	0A	0d	.
.	.	.	1f#i
=147	=147	=147	=147
0GG	0G	0d	0g
1r	1r	1r	1r
=148	=148	=148	=148
1G	1d	1g	1b-y
1G	1d	1g	1b-y
1G	1B-y	1d	1b-y
=149	=149	=149	=149
1F	1c	1f	0a
1F	1.f	1c	.
[1B-y	.	[1d	1f
.	2e	.	.
=150	=150	=150	=150
1B-]	0d	1d]	1g
0A	.	0e	0a
.	1c#i	.	.
=151	=151	=151	=151
0D	0d	0f	0a
1r	1r	1r	1r
=152	=152	=152	=152
0BB-y	0d	0f	0b-y
1F	1c	1f	1a
=153	=153	=153	=153
1G	1B-y	1d	1g
1F	1.c	1A	1.a
[1E	.	1B-y	.
.	2B-y	.	2g
=154	=154	=154	=154
1E]	1G	1c	0g
0D	0A	0d	.
.	.	.	1f#i
=155	=155	=155	=155
00GGl	00Gl	00dl	00gl
==	==	==	==
*-	*-	*-	*-
!!!system-decoration: [*]
!!!RDF**kern: i = editorial accidental
!!!RDF**kern: l = terminal long
!!!ENC: Benjamin Ory
!!!END: 2023/1/23
!!!EED: Benjamin Ory
!!!EEV: 2023/01/23
!!!YEC: Copyright 2023 Benjamin Ory, All Rights Reserved
!!!ONB: Translated from MusicXML on 2023/01/23
